X: 1
T:Kas a barh
C:Loffet 7
M:C
L:1/8
K:G
A2A2A3B|cdcB A2A2|B2B2B3d|c2B2c2A2|\
A2A2A3B|cdcB A2A2|B2B2B3d|c2B2A4||
e2e2e2dc|ddde d2d2|c2c2c2BA|B3cB2B2|\
e2d2B3d|c2B2A4||
